symbols/web/wifi_calling/materialsymbolssharp/wifi_calling_wght300fill1_24px.svg

<svg xmlns="http://www.w3.org/2000/svg" height="24" width="24"><path d="m16.5 10.225-4.975-5q1.075-.825 2.363-1.3 1.287-.475 2.612-.475 1.325 0 2.613.487 1.287.488 2.362 1.313Zm2.95 10.225q-2.925 0-5.787-1.375Q10.8 17.7 8.55 15.45 6.3 13.2 4.913 10.337 3.525 7.475 3.525 4.55v-.525q0-.275.05-.525H8.7l.875 4.55-2.775 2.7q1.2 2 2.837 3.625Q11.275 16 13.35 17.2l2.775-2.8 4.35.875v5.1q-.225.05-.513.063-.287.012-.512.012Z"/></svg>

<svg xmlns="http://www.w3.org/2000/svg" height="24" width="24"><path d="M16.5 10.225 11.525 5.225Q12.6 4.4 13.888 3.925Q15.175 3.45 16.5 3.45Q17.825 3.45 19.113 3.937Q20.4 4.425 21.475 5.25ZM19.45 20.45Q16.525 20.45 13.663 19.075Q10.8 17.7 8.55 15.45Q6.3 13.2 4.913 10.337Q3.525 7.475 3.525 4.55Q3.525 4.3 3.525 4.025Q3.525 3.75 3.575 3.5H8.7L9.575 8.05L6.8 10.75Q8 12.75 9.637 14.375Q11.275 16 13.35 17.2L16.125 14.4L20.475 15.275V20.375Q20.25 20.425 19.962 20.438Q19.675 20.45 19.45 20.45Z"/></svg>
